assets/src/edit-story/icons/keyboard.svg

<svg fill="none" height="18" viewBox="0 0 24 18" width="24" xmlns="http://www.w3.org/2000/svg"><path clip-rule="evenodd" d="m21.334.832031h-18.66668c-1.28334 0-2.321669 1.049999-2.321669 2.333329l-.011667 11.66664c0 1.2834 1.049996 2.3334 2.333336 2.3334h18.66668c1.2833 0 2.3333-1.05 2.3333-2.3334v-11.66664c0-1.28333-1.05-2.333329-2.3333-2.333329zm0 2.333329v11.66664h-18.66668v-11.66664zm-8.1667 1.16667h-2.3333v2.33333h2.3333zm-2.3333 3.5h2.3333v2.33337h-2.3333zm-1.16668-3.5h-2.33334v2.33333h2.33334zm-2.33334 3.5h2.33334v2.33337h-2.33334zm-1.16666 0h-2.33334v2.33337h2.33334zm-2.33334-3.5h2.33334v2.33333h-2.33334zm12.83332 6.99997h-9.33332v2.3334h9.33332zm-2.3333-3.49997h2.3333v2.33337h-2.3333zm2.3333-3.5h-2.3333v2.33333h2.3333zm1.1667 3.5h2.3333v2.33337h-2.3333zm2.3333-3.5h-2.3333v2.33333h2.3333z" fill="#fff" fill-rule="evenodd"/></svg>

<svg width="24" height="18" viewBox="0 0 24 18" fill="none" xmlns="http://www.w3.org/2000/svg">
  <path fill-rule="evenodd" clip-rule="evenodd" d="M21.334 0.832031H2.66732C1.38398 0.832031 0.345651 1.88203 0.345651 3.16536L0.333984 14.832C0.333984 16.1154 1.38398 17.1654 2.66732 17.1654H21.334C22.6173 17.1654 23.6673 16.1154 23.6673 14.832V3.16536C23.6673 1.88203 22.6173 0.832031 21.334 0.832031ZM21.334 3.16536V14.832H2.66732V3.16536H21.334ZM13.1673 4.33203H10.834V6.66536H13.1673V4.33203ZM10.834 7.83203H13.1673V10.1654H10.834V7.83203ZM9.66732 4.33203H7.33398V6.66536H9.66732V4.33203ZM7.33398 7.83203H9.66732V10.1654H7.33398V7.83203ZM6.16732 7.83203H3.83398V10.1654H6.16732V7.83203ZM3.83398 4.33203H6.16732V6.66536H3.83398V4.33203ZM16.6673 11.332H7.33398V13.6654H16.6673V11.332ZM14.334 7.83203H16.6673V10.1654H14.334V7.83203ZM16.6673 4.33203H14.334V6.66536H16.6673V4.33203ZM17.834 7.83203H20.1673V10.1654H17.834V7.83203ZM20.1673 4.33203H17.834V6.66536H20.1673V4.33203Z" fill="white"/>
</svg>
